X:1
T:ARKUME ETA GAZTAKIN
T:ARKUME ETA GAZTAKIN
T:Mold:  Lorenzo Ondara
T:ARTURO  KANPION  ABESBATZA
T:ARTURO  KANPION  ABESBATZA
C:Mold:  Lorenzo Ondara
Z:ARTURO  KANPION  ABESBATZA
%%score [ 1 2 ( 3 4 ) ( 5 6 ) ]
L:1/8
Q:1/4=85
M:5/8
K:G
V:1 treble nm="Soprano"
V:2 treble nm="Alto"
V:3 treble-8 nm="Tenor"
V:4 treble-8 
V:5 bass nm="Bass"
V:6 bass 
V:1
"^Allegretto"!mf! D B3/2 B/ A3/2 c/ | B3 d2 | c B3/2 c/ d3/2 e/ | (d3 B2) | D B3/2 B/ A3/2 c/ | %5
w: Ar- ku- me ta gaz-|ta- kin|goa- zen Be- le- ne-|ra _||
w: ||||Be- lau- ni- ko ja-|
 B3 d2 | ^c c3/2 B/ A3/2 G/ | F3- F2 ::S"_Kop. Peio G. Z.  2008 / 2019"!mp! c A3/2 B/ c3/2 A/ | %9
w: |||Goa- zen, goa- zen, guz-|
w: rri- rik|Je- sus- en au- rre-|an _|_ _ _ _ _|
 (B G3/2 A/) B2 | F G3/2 A/ B3/2 c/ | d3 ^d2 | e c3/2 d/ e3/2 e/ | d3 B2 | c A3/2 B/ c3/2 c/ | %15
w: ti- * * ok,|goa- zen Be- len- e-|ra _|be- lau- ni- ko ja-|rri- rik,|Je- sus- en au- rre-|
w: ||||||
 B3- B z!fine! :|[K:Bb]"_Solo"[Q:1/4=75]"^Andantino" d c3/2 B/ A3/2 B/ | A G2- G2 | %18
w: an _|Ain- ge- ru- ak e-|san du _|
w: |||
 G A3/2 B/ A3/2 G/ | A3- A2 | A B3/2 c/ d3/2 e/ | d- d3/2 c/ B2 | A A3/2 G/ ^F3/2 G/ | %23
w: hor goi- ko men- di-|an _|zo- ri- a ze- ru-|ra _ _ ko|pa- ke- a lu- rre-|
w: |||||
 d3- d2!D.S.! |] %24
w: an! _|
w: |
V:2
!mf! D G3/2 G/ F3/2 A/ | G3 B2 | A ^G3/2 A/ B3/2 c/ | (B3 G2) | D G3/2 G/ F3/2 A/ | G3 B2 | %6
w: Ar- ku- me ta gaz-|ta- kin|goa- zen Be- le- ne-|ra _|||
w: ||||Be- lau- ni- ko ja-|rri- rik|
 A A3/2 G/ F3/2 E/ | D3- D2 ::!mp! A F3/2 G/ A3/2 F/ | G3 G2 | D E3/2 F/ G3/2 G/ | F3 =F2 | %12
w: ||Goa- zen, goa- zen, guz-|ti- ok,|goa- zen Be- len- e-|ra _|
w: Je- sus- en au- rre-|an _|_ _ _ _ _||||
 E A3/2 B/ c3/2 ^A/ | (B F3/2 E/) D2 | A F3/2 G/ A3/2 F/ | G3- G z :|[K:Bb] z5 | z!p! B,2 D2 | %18
w: be- lau- ni- ko ja-|rri _ _ rik,|Je- sus- en au- rre-|an _|||
w: ||||||
 D3 ^C2 | C3- C2 | ^F3- F2 | ^F3 G3/2 =F/ | =E3- E2 | ^F3- F2 |] %24
w: ||||||
w: ||||||
V:3
 z5 |!mf! D d3/2 d/ e3/2 f/ | e3 d2 | c d3/2 e/ d3/2 ^c/ | (d3 _e2) | d d3/2 d/ e3/2 =f/ | e3 ^c2 | %7
w: |Ar- ku- me ta gaz-|ta- kin|goa- zen Be- len- e-|ra _|be- lau- ni- ko ja-|rri- rik|
 d A3/2 B/ c2 :: z5 |!mp! d B3/2 A/ d2 | c B3/2 c/ A2 | A B3/2 c/ B A | A e2 c2 | B ^A3/2 A/ B2 | %14
w: au _ rre- an.||Goa- zen, goa- zen|goa- zen, goa- zen,|Be- len- e- ra _|be- lau- ni-|ko ja- rri- rik|
 A c3/2 c/ e3/2 d/ | d3- d z :|[K:Bb]!p! G e2 e2 | G e3/2 d/ c3/2 B/ | B3- B2 | G A3/2 B/ A3/2 G/ | %20
w: Je- sus- en au- rre-|an. _|_ _ _||||
 c3- c2 | d3- d2 | d ^c2- c2 | c3- c2 |] %24
w: ||||
V:4
 x5 | x5 | x5 | x5 | x5 | x5 | x5 | x5 :: x5 | x5 | x5 | x5 | x5 | x5 | x5 | x5 :|[K:Bb] x5 | x5 | %18
 x5 | x5 | x5 | x5 | x5 | A3- A2 |] %24
V:5
 z5 |!mf! D, G,3/2 G,/ ^G,3/2 G,/ | A,3 F,2 | D, B,3/2 ^A,/ B,3/2 A,/ | (B,3 G,2) | %5
w: |Ar- ku- me ta gaz-|ta- kin|goa- zen Be- len- e-|ra _|
 F, G,3/2 G,/ ^G,3/2 G,/ | A,3 A,2 | D, F,3/2 G,/ A,2 :: z5 |!mp! G, G,3/2 G,/ G,2 | %10
w: be- lau- ni- ko ja-|rri- rik|au _ rre- an.||Goa- zen, goa- zen|
 A, G,3/2 F,/ E,2 | D, D,3/2 D,/ G,2 | C, C,2 C,2 | D, D,3/2 D,/ (G,3/2 F,/) | %14
w: goa- zen, goa- zen,|Be- len- e- ra|_ be- lau-|ni- ko ja- rri- rik|
 E, E,3/2 E,/ D,3/2 D,/ | G,3- G, z :|[K:Bb]!p! G,3- G,2 | G,3 E,2 | =E,3- E,2 | %19
w: Je- sus- en au- rre-|an. _|_ _|||
 !courtesy!_E,3- E,2 | E,3 A,2 | C B,3/2 A,/ G,2 | B,3 A,2 | A,3- A,2 |] %24
w: |||||
V:6
 x5 | x5 | x5 | x5 | x5 | x5 | x5 | x5 :: x5 | x5 | x5 | x5 | x5 | x5 | x5 | x5 :|[K:Bb] x5 | x5 | %18
 x5 | x5 | x5 | x5 | x5 | D,3- D,2 |] %24

